humanity-icon-theme/Humanity/places/48/stock_smart-playlist.svg

<?xml version="1.0" encoding="UTF-8" standalone="no"?>
<!-- Created with Inkscape (http://www.inkscape.org/) -->
<svg
   xmlns:dc="http://purl.org/dc/elements/1.1/"
   xmlns:cc="http://creativecommons.org/ns#"
   xmlns:rdf="http://www.w3.org/1999/02/22-rdf-syntax-ns#"
   xmlns:svg="http://www.w3.org/2000/svg"
   xmlns="http://www.w3.org/2000/svg"
   xmlns:xlink="http://www.w3.org/1999/xlink"
   xmlns:sodipodi="http://sodipodi.sourceforge.net/DTD/sodipodi-0.dtd"
   xmlns:inkscape="http://www.inkscape.org/namespaces/inkscape"
   version="1.1"
   width="48"
   height="48"
   id="svg4078"
   inkscape:version="0.46"
   sodipodi:docname="stock_smart-playlist.svg"
   sodipodi:version="0.32"
   inkscape:output_extension="org.inkscape.output.svg.inkscape">
  <metadata
     id="metadata63">
    <rdf:RDF>
      <cc:Work
         rdf:about="">
        <dc:format>image/svg+xml</dc:format>
        <dc:type
           rdf:resource="http://purl.org/dc/dcmitype/StillImage" />
      </cc:Work>
    </rdf:RDF>
  </metadata>
  <sodipodi:namedview
     pagecolor="#ffffff"
     bordercolor="#666666"
     borderopacity="1"
     objecttolerance="10"
     gridtolerance="10"
     guidetolerance="10"
     inkscape:pageopacity="0"
     inkscape:pageshadow="2"
     inkscape:window-width="1280"
     inkscape:window-height="706"
     id="namedview61"
     showgrid="false"
     inkscape:zoom="6.66125"
     inkscape:cx="-3.1588839"
     inkscape:cy="28.428598"
     inkscape:window-x="79"
     inkscape:window-y="54"
     inkscape:window-maximized="1"
     inkscape:current-layer="svg4078" />
  <defs
     id="defs4080">
    <linearGradient
       id="linearGradient4267">
      <stop
         id="stop4269"
         style="stop-color:#c4c4c4;stop-opacity:1"
         offset="0" />
      <stop
         id="stop4271"
         style="stop-color:#c4c4c4;stop-opacity:0"
         offset="1" />
    </linearGradient>
    <linearGradient
       id="linearGradient8589">
      <stop
         id="stop8591"
         style="stop-color:#fefefe;stop-opacity:1"
         offset="0" />
      <stop
         id="stop8593"
         style="stop-color:#cbcbcb;stop-opacity:1"
         offset="1" />
    </linearGradient>
    <filter
       x="-0.14846256"
       y="-0.16434373"
       width="1.2969251"
       height="1.3286875"
       color-interpolation-filters="sRGB"
       id="filter3212">
      <feGaussianBlur
         stdDeviation="0.77391625"
         id="feGaussianBlur3214" />
    </filter>
    <linearGradient
       id="linearGradient3211">
      <stop
         id="stop3213"
         style="stop-color:#ffffff;stop-opacity:1"
         offset="0" />
      <stop
         id="stop3215"
         style="stop-color:#ffffff;stop-opacity:0"
         offset="1" />
    </linearGradient>
    <radialGradient
       cx="102"
       cy="112.3047"
       r="139.55859"
       id="XMLID_8_"
       gradientUnits="userSpaceOnUse">
      <stop
         id="stop41"
         style="stop-color:#000000;stop-opacity:1"
         offset="0" />
      <stop
         id="stop47"
         style="stop-color:#000000;stop-opacity:1"
         offset="0.18851049" />
      <stop
         id="stop49"
         style="stop-color:#000000;stop-opacity:0"
         offset="0.25718147" />
      <stop
         id="stop51"
         style="stop-color:#000000;stop-opacity:0"
         offset="1" />
    </radialGradient>
    <linearGradient
       id="linearGradient3242-593-605-251-305">
      <stop
         id="stop2749"
         style="stop-color:#d78ec1;stop-opacity:1"
         offset="0" />
      <stop
         id="stop2751"
         style="stop-color:#c564be;stop-opacity:1"
         offset="0.26238" />
      <stop
         id="stop2753"
         style="stop-color:#9d3ea4;stop-opacity:1"
         offset="0.66093999" />
      <stop
         id="stop2755"
         style="stop-color:#5e2c73;stop-opacity:1"
         offset="1" />
    </linearGradient>
    <linearGradient
       id="linearGradient3332-412-419-652-471">
      <stop
         id="stop2759"
         style="stop-color:#650d5c;stop-opacity:1"
         offset="0" />
      <stop
         id="stop2761"
         style="stop-color:#ad53a5;stop-opacity:1"
         offset="1" />
    </linearGradient>
    <linearGradient
       id="linearGradient5060">
      <stop
         id="stop5062"
         style="stop-color:#000000;stop-opacity:1"
         offset="0" />
      <stop
         id="stop5064"
         style="stop-color:#000000;stop-opacity:0"
         offset="1" />
    </linearGradient>
    <linearGradient
       id="linearGradient5048">
      <stop
         id="stop5050"
         style="stop-color:#000000;stop-opacity:0"
         offset="0" />
      <stop
         id="stop5056"
         style="stop-color:#000000;stop-opacity:1"
         offset="0.5" />
      <stop
         id="stop5052"
         style="stop-color:#000000;stop-opacity:0"
         offset="1" />
    </linearGradient>
    <linearGradient
       inkscape:collect="always"
       xlink:href="#linearGradient4267"
       id="linearGradient3651"
       gradientUnits="userSpaceOnUse"
       x1="35.516502"
       y1="4.8577352"
       x2="34.102982"
       y2="6.5436172" />
    <linearGradient
       inkscape:collect="always"
       xlink:href="#linearGradient8589"
       id="linearGradient3654"
       gradientUnits="userSpaceOnUse"
       gradientTransform="matrix(0.9976985,0,0,1.0406866,0.1638029,-1.1057942)"
       x1="32.892288"
       y1="8.0590115"
       x2="36.358372"
       y2="5.4565363" />
    <linearGradient
       inkscape:collect="always"
       xlink:href="#linearGradient3211"
       id="linearGradient3658"
       gradientUnits="userSpaceOnUse"
       gradientTransform="matrix(1,0,0,0.9777778,0,-0.96666964)"
       x1="24"
       y1="1.9999999"
       x2="24"
       y2="46.01725" />
    <radialGradient
       inkscape:collect="always"
       xlink:href="#XMLID_8_"
       id="radialGradient3661"
       gradientUnits="userSpaceOnUse"
       gradientTransform="matrix(0.3617022,0,0,-0.3907784,0.8510637,47.517004)"
       cx="102"
       cy="112.3047"
       r="139.55859" />
    <radialGradient
       inkscape:collect="always"
       xlink:href="#linearGradient3242-593-605-251-305"
       id="radialGradient3664"
       gradientUnits="userSpaceOnUse"
       gradientTransform="matrix(-2.2703142e-8,2.1357283,-3.5601359,-3.7844828e-8,54.620625,-24.438287)"
       cx="14.76559"
       cy="10.898237"
       fx="14.76559"
       fy="10.898237"
       r="18.000002" />
    <linearGradient
       inkscape:collect="always"
       xlink:href="#linearGradient3332-412-419-652-471"
       id="linearGradient3666"
       gradientUnits="userSpaceOnUse"
       gradientTransform="matrix(0.8074968,0,0,0.8948322,59.410232,-2.9805536)"
       x1="-51.786404"
       y1="53.623615"
       x2="-51.786404"
       y2="2.9062471" />
    <radialGradient
       inkscape:collect="always"
       xlink:href="#linearGradient5060"
       id="radialGradient3669"
       gradientUnits="userSpaceOnUse"
       gradientTransform="matrix(0.02303995,0,0,0.01470022,26.360882,37.040176)"
       cx="605.71429"
       cy="486.64789"
       fx="605.71429"
       fy="486.64789"
       r="117.14286" />
    <radialGradient
       inkscape:collect="always"
       xlink:href="#linearGradient5060"
       id="radialGradient3672"
       gradientUnits="userSpaceOnUse"
       gradientTransform="matrix(-0.02303994,0,0,0.01470022,21.62311,37.040176)"
       cx="605.71429"
       cy="486.64789"
       fx="605.71429"
       fy="486.64789"
       r="117.14286" />
    <linearGradient
       inkscape:collect="always"
       xlink:href="#linearGradient5048"
       id="linearGradient3675"
       gradientUnits="userSpaceOnUse"
       gradientTransform="matrix(0.06732488,0,0,0.01470022,-0.3411391,37.040146)"
       x1="302.85715"
       y1="366.64789"
       x2="302.85715"
       y2="609.50507" />
  </defs>
  <rect
     style="opacity:0.3;fill:url(#linearGradient3675);fill-opacity:1;fill-rule:nonzero;stroke:none;stroke-width:1;marker:none;visibility:visible;display:inline;overflow:visible"
     id="rect2879"
     y="42.429947"
     x="7.7378473"
     height="3.5700529"
     width="32.508301" />
  <path
     style="opacity:0.3;fill:url(#radialGradient3672);fill-opacity:1;fill-rule:nonzero;stroke:none;stroke-width:1;marker:none;visibility:visible;display:inline;overflow:visible"
     id="path2881"
     d="m 7.7378475,42.430102 c 0,0 0,3.569856 0,3.569856 -1.1865002,0.0067 -2.8683795,-0.799823 -2.8683795,-1.785158 0,-0.985333 1.3240446,-1.784697 2.8683795,-1.784698 z" />
  <path
     style="opacity:0.3;fill:url(#radialGradient3669);fill-opacity:1;fill-rule:nonzero;stroke:none;stroke-width:1;marker:none;visibility:visible;display:inline;overflow:visible"
     id="path2883"
     d="m 40.246148,42.430102 c 0,0 0,3.569856 0,3.569856 1.1865,0.0067 2.86838,-0.799823 2.86838,-1.785158 0,-0.985333 -1.324045,-1.784697 -2.86838,-1.784698 z" />
  <path
     style="fill:url(#radialGradient3664);fill-opacity:1;stroke:url(#linearGradient3666);stroke-width:0.99992186;stroke-linecap:butt;stroke-linejoin:round;stroke-miterlimit:4;stroke-opacity:1;stroke-dasharray:none;stroke-dashoffset:0;display:inline"
     id="path4160"
     d="m 6.4999609,0.49719839 c 8.0202951,0 16.0405901,0 24.0608861,0 0.525234,1.96019971 6.133094,6.85160281 10.939195,9.62640661 0,11.459733 0,22.919465 0,34.379198 -11.666694,0 -23.333387,0 -35.0000811,0 0,-14.668535 0,-29.33707 0,-44.00560461 z" />
  <path
     style="opacity:0.1;fill:url(#radialGradient3661);fill-opacity:1"
     id="path4191"
     d="m 7.3617017,44 c -0.199297,0 -0.361702,-0.175459 -0.361702,-0.39078 l 0,-42.2040502 c 0,-0.2157088 0.162405,-0.3907775 0.361702,-0.3907775 C 14.844793,1.122407 23.137385,0.85281719 30.611384,1.0412869 L 40.894021,9.907312 41,43.60922 C 41,43.824541 40.837957,44 40.638297,44 L 7.3617017,44 z" />
  <path
     style="opacity:0.4;fill:none;stroke:url(#linearGradient3658);stroke-width:0.9999218;stroke-linecap:butt;stroke-linejoin:round;stroke-miterlimit:4;stroke-opacity:1;stroke-dasharray:none;stroke-dashoffset:0;display:inline"
     id="path2435"
     d="m 40.500039,10.258811 c 0,10.949037 0,22.31441 0,33.263447 -11.000026,0 -22.000052,0 -33.0000781,0 0,-14.014841 0,-28.029681 0,-42.0445216 7.5619931,0 15.3043341,0 22.8663281,0" />
  <path
     style="opacity:0.4;fill:#000000;fill-opacity:1;fill-rule:evenodd;stroke:none;display:inline;filter:url(#filter3212)"
     id="path12038"
     d="m 28.617256,0.92125799 c 4.282522,0 2.15325,8.48317101 2.15325,8.48317101 0,0 10.357642,-1.8023464 10.357642,2.818745 0,-2.609724 -11.302304,-10.7285959 -12.510892,-11.30191601 z" />
  <path
     style="fill:url(#linearGradient3654);fill-opacity:1;fill-rule:evenodd;stroke:none;display:inline"
     id="path4474"
     d="m 28.617256,0.92125799 c 3.186493,0 2.33576,7.66187851 2.33576,7.66187851 0,0 10.175132,-0.9810539 10.175132,3.6400375 0,-1.125939 0.08591,-1.932245 -0.133777,-2.283593 C 39.416058,7.4154022 32.881194,1.7511808 30.41941,1.0087927 30.235188,0.95323799 29.544367,0.92125799 28.617256,0.92125799 z" />
  <path
     style="fill:none;stroke:url(#linearGradient3651);stroke-width:0.99992186;stroke-linecap:butt;stroke-linejoin:round;stroke-miterlimit:4;stroke-opacity:1;stroke-dasharray:none;stroke-dashoffset:0;display:inline"
     id="path4238"
     d="m 30.560847,0.49999969 c 1.406933,0.4746531 8.965454,5.87940341 10.939195,9.62360531 0,11.459733 0,0.825538 0,12.285271 C 1.0542159,38.137806 6.2643971,0.49999969 30.560847,0.49999969 z" />
  <path
     d="M 22.4375,37 C 22.187767,37 22,36.584418 22,36.0625 L 22,32.75 C 20.994594,32.521061 20.065128,32.128381 19.21875,31.59375 L 16.875,33.9375 C 16.505948,34.306552 16.082838,34.457837 15.90625,34.28125 L 13.71875,32.09375 C 13.542162,31.917162 13.69345,31.494052 14.0625,31.125 L 16.40625,28.78125 C 15.871619,27.934872 15.478939,27.005406 15.25,26 L 11.9375,26 C 11.415582,26 11,25.812233 11,25.5625 L 11,22.4375 C 11,22.187767 11.415583,22 11.9375,22 L 15.25,22 C 15.478939,20.994594 15.871619,20.065128 16.40625,19.21875 L 14.0625,16.875 C 13.693448,16.505948 13.542161,16.082838 13.71875,15.90625 L 15.90625,13.71875 C 19.437144,17.177884 28.220804,17.907364 32.09375,13.71875 L 34.28125,15.90625 C 34.457838,16.082837 34.30655,16.505948 33.9375,16.875 L 31.59375,19.21875 C 32.128381,20.065128 32.521061,20.994594 32.75,22 L 36.0625,22 C 36.584418,22 37,22.187767 37,22.4375 L 37,25.5625 C 37,25.812233 36.584418,26 36.0625,26 L 32.75,26 C 32.521061,27.005406 32.128381,27.934872 31.59375,28.78125 L 33.9375,31.125 C 34.306552,31.494051 34.457838,31.917163 34.28125,32.09375 L 32.09375,34.28125 C 31.917162,34.457838 31.494052,34.30655 31.125,33.9375 L 28.78125,31.59375 C 27.934872,32.128381 27.005406,32.521061 26,32.75 L 26,36.0625 C 26,36.584418 25.812233,37 25.5625,37 L 22.4375,37 L 22.4375,37 z M 24,28 C 26.208,28 28,26.208 28,24 C 28,21.792 26.208,20 24,20 C 21.792,20 20,21.792 20,24 C 20,26.208 21.792,28 24,28 z"
     id="rect3594"
     style="opacity:0.4;fill:#ffffff;fill-opacity:1;fill-rule:nonzero;stroke:none;stroke-width:0.5;marker:none;visibility:visible;display:inline;overflow:visible;enable-background:accumulate" />
  <path
     d="M 22.4375,36 C 22.187767,36 22,35.584418 22,35.0625 L 22,31.75 C 20.994594,31.521061 20.065128,31.128381 19.21875,30.59375 L 16.875,32.9375 C 16.505948,33.306552 16.082838,33.457837 15.90625,33.28125 L 13.71875,31.09375 C 13.542162,30.917162 13.69345,30.494052 14.0625,30.125 L 16.40625,27.78125 C 15.871619,26.934872 15.478939,26.005406 15.25,25 L 11.9375,25 C 11.415582,25 11,24.812233 11,24.5625 L 11,21.4375 C 11,21.187767 11.415583,21 11.9375,21 L 15.25,21 C 15.478939,19.994594 15.871619,19.065128 16.40625,18.218751 L 14.0625,15.875001 C 13.693448,15.505949 13.542161,15.082839 13.71875,14.906251 L 15.90625,12.718751 C 16.082838,12.542163 16.505948,12.693451 16.875,13.062501 L 19.21875,15.406251 C 20.065128,14.87162 20.994594,14.47894 22,14.250001 L 22,10.9375 C 22,10.415582 22.187767,10 22.4375,10 L 25.5625,10 C 25.812233,10 26,10.415583 26,10.9375 L 26,14.250001 C 27.005406,14.47894 27.934872,14.87162 28.78125,15.406251 L 31.125,13.062501 C 31.494052,12.693449 31.917162,12.542163 32.09375,12.718751 L 34.28125,14.906251 C 34.457838,15.082838 34.30655,15.505949 33.9375,15.875001 L 31.59375,18.218751 C 32.128381,19.065128 32.521061,19.994594 32.75,21 L 36.0625,21 C 36.584418,21 37,21.187767 37,21.4375 L 37,24.5625 C 37,24.812233 36.584418,25 36.0625,25 L 32.75,25 C 32.521061,26.005406 32.128381,26.934872 31.59375,27.78125 L 33.9375,30.125 C 34.306552,30.494051 34.457838,30.917163 34.28125,31.09375 L 32.09375,33.28125 C 31.917162,33.457838 31.494052,33.30655 31.125,32.9375 L 28.78125,30.59375 C 27.934872,31.128381 27.005406,31.521061 26,31.75 L 26,35.0625 C 26,35.584418 25.812233,36 25.5625,36 L 22.4375,36 L 22.4375,36 z M 24,27 C 26.208,27 28,25.208 28,23 C 28,20.792 26.208,19 24,19 C 21.792,19 20,20.792 20,23 C 20,25.208 21.792,27 24,27 z"
     id="path3625-9"
     style="fill:#6d3c6d;fill-opacity:1;fill-rule:nonzero;stroke:none;stroke-width:0.5;marker:none;visibility:visible;display:inline;overflow:visible;enable-background:accumulate" />
</svg>

<?xml version="1.0" encoding="UTF-8" standalone="no"?>
<!-- Created with Inkscape (http://www.inkscape.org/) -->
<svg id="svg4078" xmlns:rdf="http://www.w3.org/1999/02/22-rdf-syntax-ns#" xmlns="http://www.w3.org/2000/svg" height="48" width="48" version="1.1" xmlns:cc="http://creativecommons.org/ns#" xmlns:xlink="http://www.w3.org/1999/xlink" xmlns:dc="http://purl.org/dc/elements/1.1/">
 <metadata id="metadata63">
  <rdf:RDF>
   <cc:Work rdf:about="">
    <dc:format>image/svg+xml</dc:format>
    <dc:type rdf:resource="http://purl.org/dc/dcmitype/StillImage"/>
   </cc:Work>
  </rdf:RDF>
 </metadata>
 <defs id="defs4080">
  <filter id="filter3212" height="1.3287" width="1.2969" color-interpolation-filters="sRGB" y="-.16434" x="-.14846">
   <feGaussianBlur id="feGaussianBlur3214" stdDeviation="0.77391625"/>
  </filter>
  <linearGradient id="linearGradient5060">
   <stop id="stop5062" offset="0"/>
   <stop id="stop5064" style="stop-opacity:0" offset="1"/>
  </linearGradient>
  <linearGradient id="linearGradient3651" y2="6.5436" gradientUnits="userSpaceOnUse" x2="34.103" y1="4.8577" x1="35.517">
   <stop id="stop4269" style="stop-color:#c4c4c4" offset="0"/>
   <stop id="stop4271" style="stop-color:#c4c4c4;stop-opacity:0" offset="1"/>
  </linearGradient>
  <linearGradient id="linearGradient3654" y2="5.4565" gradientUnits="userSpaceOnUse" x2="36.358" gradientTransform="matrix(.99770 0 0 1.0407 .16380 -1.1058)" y1="8.059" x1="32.892">
   <stop id="stop8591" style="stop-color:#fefefe" offset="0"/>
   <stop id="stop8593" style="stop-color:#cbcbcb" offset="1"/>
  </linearGradient>
  <linearGradient id="linearGradient3658" y2="46.017" gradientUnits="userSpaceOnUse" x2="24" gradientTransform="matrix(1 0 0 .97778 0 -.96667)" y1="2" x1="24">
   <stop id="stop3213" style="stop-color:#fff" offset="0"/>
   <stop id="stop3215" style="stop-color:#fff;stop-opacity:0" offset="1"/>
  </linearGradient>
  <radialGradient id="radialGradient3661" gradientUnits="userSpaceOnUse" cy="112.3" cx="102" gradientTransform="matrix(.36170 0 0 -.39078 .85106 47.517)" r="139.56">
   <stop id="stop41" offset="0"/>
   <stop id="stop47" offset=".18851"/>
   <stop id="stop49" style="stop-opacity:0" offset=".25718"/>
   <stop id="stop51" style="stop-opacity:0" offset="1"/>
  </radialGradient>
  <radialGradient id="radialGradient3664" gradientUnits="userSpaceOnUse" cy="10.898" cx="14.766" gradientTransform="matrix(-2.2703e-8 2.1357 -3.5601 -3.7845e-8 54.621 -24.438)" r="18">
   <stop id="stop2749" style="stop-color:#d78ec1" offset="0"/>
   <stop id="stop2751" style="stop-color:#c564be" offset=".26238"/>
   <stop id="stop2753" style="stop-color:#9d3ea4" offset=".66094"/>
   <stop id="stop2755" style="stop-color:#5e2c73" offset="1"/>
  </radialGradient>
  <linearGradient id="linearGradient3666" y2="2.9062" gradientUnits="userSpaceOnUse" x2="-51.786" gradientTransform="matrix(.80750 0 0 .89483 59.41 -2.9806)" y1="53.624" x1="-51.786">
   <stop id="stop2759" style="stop-color:#650d5c" offset="0"/>
   <stop id="stop2761" style="stop-color:#ad53a5" offset="1"/>
  </linearGradient>
  <radialGradient id="radialGradient3669" xlink:href="#linearGradient5060" gradientUnits="userSpaceOnUse" cy="486.65" cx="605.71" gradientTransform="matrix(.023040 0 0 0.0147 26.361 37.04)" r="117.14"/>
  <radialGradient id="radialGradient3672" xlink:href="#linearGradient5060" gradientUnits="userSpaceOnUse" cy="486.65" cx="605.71" gradientTransform="matrix(-.023040 0 0 0.0147 21.623 37.04)" r="117.14"/>
  <linearGradient id="linearGradient3675" y2="609.51" gradientUnits="userSpaceOnUse" x2="302.86" gradientTransform="matrix(.067325 0 0 0.0147 -.34114 37.04)" y1="366.65" x1="302.86">
   <stop id="stop5050" style="stop-opacity:0" offset="0"/>
   <stop id="stop5056" offset=".5"/>
   <stop id="stop5052" style="stop-opacity:0" offset="1"/>
  </linearGradient>
 </defs>
 <rect id="rect2879" style="opacity:.3;fill:url(#linearGradient3675)" height="3.5701" width="32.508" y="42.43" x="7.7378"/>
 <path id="path2881" style="opacity:.3;fill:url(#radialGradient3672)" d="m7.7378 42.43v3.5699c-1.1865 0.0067-2.8684-0.79982-2.8684-1.7852 0-0.98533 1.324-1.7847 2.8684-1.7847z"/>
 <path id="path2883" style="opacity:.3;fill:url(#radialGradient3669)" d="m40.246 42.43v3.5699c1.1865 0.0067 2.8684-0.79982 2.8684-1.7852 0-0.98533-1.324-1.7847-2.8684-1.7847z"/>
 <path id="path4160" style="stroke-linejoin:round;stroke:url(#linearGradient3666);stroke-width:.99992;fill:url(#radialGradient3664)" d="m6.5 0.4972h24.061c0.52523 1.9602 6.1331 6.8516 10.939 9.6264v34.379h-35v-44.006z"/>
 <path id="path4191" style="opacity:.1;fill:url(#radialGradient3661)" d="m7.3617 44c-0.1993 0-0.3617-0.17546-0.3617-0.39078v-42.204c0-0.21571 0.1624-0.39078 0.3617-0.39078 7.4833 0.1082 15.775-0.16138 23.249 0.0271l10.283 8.866 0.106 33.702c0 0.216-0.162 0.391-0.362 0.391h-33.276z"/>
 <path id="path2435" style="opacity:.4;stroke-linejoin:round;stroke:url(#linearGradient3658);stroke-width:.99992;fill:none" d="m40.5 10.259v33.263h-33v-42.045h22.866"/>
 <path id="path12038" style="opacity:.4;fill-rule:evenodd;filter:url(#filter3212)" d="m28.617 0.92126c4.2825 0 2.1532 8.4832 2.1532 8.4832s10.358-1.8023 10.358 2.8187c0-2.6097-11.302-10.729-12.511-11.302z"/>
 <path id="path4474" style="fill:url(#linearGradient3654);fill-rule:evenodd" d="m28.617 0.92126c3.1865 0 2.3358 7.6619 2.3358 7.6619s10.175-0.98105 10.175 3.64c0-1.1259 0.08591-1.9322-0.13378-2.2836-1.578-2.5243-8.113-8.1885-10.575-8.9309-0.184-0.05556-0.875-0.08754-1.802-0.08754z"/>
 <path id="path4238" style="stroke-linejoin:round;stroke:url(#linearGradient3651);stroke-width:.99992;fill:none" d="m30.561 0.5c1.4069 0.47465 8.9655 5.8794 10.939 9.6236v12.285c-40.446 15.729-35.236-21.909-10.939-21.909z"/>
 <path id="rect3594" style="opacity:.4;fill:#fff" d="m22.438 37c-0.25 0-0.438-0.416-0.438-0.938v-3.312c-1.005-0.229-1.935-0.622-2.781-1.156l-2.344 2.344c-0.369 0.369-0.792 0.52-0.969 0.343l-2.187-2.187c-0.177-0.177-0.026-0.6 0.343-0.969l2.344-2.344c-0.534-0.846-0.927-1.776-1.156-2.781h-3.312c-0.522 0-0.938-0.188-0.938-0.438v-3.124c0-0.25 0.416-0.438 0.938-0.438h3.312c0.229-1.005 0.622-1.935 1.156-2.781l-2.344-2.344c-0.369-0.369-0.52-0.792-0.343-0.969l2.187-2.187c3.531 3.459 12.315 4.188 16.188 0l2.187 2.187c0.177 0.177 0.026 0.6-0.343 0.969l-2.344 2.344c0.534 0.846 0.927 1.776 1.156 2.781h3.312c0.522 0 0.938 0.188 0.938 0.438v3.124c0 0.25-0.416 0.438-0.938 0.438h-3.312c-0.229 1.005-0.622 1.935-1.156 2.781l2.344 2.344c0.369 0.369 0.52 0.792 0.343 0.969l-2.187 2.187c-0.177 0.177-0.6 0.026-0.969-0.343l-2.344-2.344c-0.846 0.534-1.776 0.927-2.781 1.156v3.312c0 0.522-0.188 0.938-0.438 0.938h-3.124zm1.562-9c2.208 0 4-1.792 4-4s-1.792-4-4-4-4 1.792-4 4 1.792 4 4 4z"/>
 <path id="path3625-9" style="fill:#6d3c6d" d="m22.438 36c-0.25 0-0.438-0.416-0.438-0.938v-3.312c-1.005-0.229-1.935-0.622-2.781-1.156l-2.344 2.344c-0.369 0.369-0.792 0.52-0.969 0.343l-2.187-2.187c-0.177-0.177-0.026-0.6 0.343-0.969l2.344-2.344c-0.534-0.846-0.927-1.776-1.156-2.781h-3.312c-0.522 0-0.938-0.188-0.938-0.438v-3.124c0-0.25 0.416-0.438 0.938-0.438h3.312c0.229-1.005 0.622-1.935 1.156-2.781l-2.344-2.344c-0.369-0.369-0.52-0.792-0.343-0.969l2.187-2.187c0.177-0.177 0.6-0.026 0.969 0.344l2.344 2.343c0.846-0.534 1.776-0.927 2.781-1.156v-3.312c0-0.522 0.188-0.938 0.438-0.938h3.124c0.25 0 0.438 0.416 0.438 0.938v3.312c1.005 0.229 1.935 0.622 2.781 1.156l2.344-2.343c0.369-0.37 0.792-0.521 0.969-0.344l2.187 2.187c0.177 0.177 0.026 0.6-0.343 0.969l-2.344 2.344c0.534 0.846 0.927 1.776 1.156 2.781h3.312c0.522 0 0.938 0.188 0.938 0.438v3.124c0 0.25-0.416 0.438-0.938 0.438h-3.312c-0.229 1.005-0.622 1.935-1.156 2.781l2.344 2.344c0.369 0.369 0.52 0.792 0.343 0.969l-2.187 2.187c-0.177 0.177-0.6 0.026-0.969-0.343l-2.344-2.344c-0.846 0.534-1.776 0.927-2.781 1.156v3.312c0 0.522-0.188 0.938-0.438 0.938h-3.124zm1.562-9c2.208 0 4-1.792 4-4s-1.792-4-4-4-4 1.792-4 4 1.792 4 4 4z"/>
</svg>
